public/images/icon-edit.svg

<?xml version="1.0" encoding="UTF-8" standalone="no"?>
<svg xmlns:sketch="http://www.bohemiancoding.com/sketch/ns" xmlns="http://www.w3.org/2000/svg" height="20px" width="18px" version="1.1" xmlns:xlink="http://www.w3.org/1999/xlink" viewBox="0 0 18 20"><!-- Generator: Sketch 3.3.2 (12043) - http://www.bohemiancoding.com/sketch -->
 <title>Untitled 5</title>
 <desc>Created with Sketch.</desc>
 <g id="Page-1" fill-rule="evenodd" sketch:type="MSPage" fill="none">
  <g id="editar" fill="#444" sketch:type="MSLayerGroup">
   <path id="Shape" sketch:type="MSShapeGroup" d="m17 20h-16c-0.6 0-1-0.4-1-1s0.4-1 1-1h16c0.6 0 1 0.4 1 1s-0.4 1-1 1z"/>
   <path id="Shape" sketch:type="MSShapeGroup" d="m6 16h-4c-0.6 0-1-0.4-1-1v-4c0-0.3 0.1-0.5 0.3-0.7l10-10c0.4-0.4 1-0.4 1.4 0l4 4c0.4 0.4 0.4 1 0 1.4l-10 10c-0.2 0.2-0.4 0.3-0.7 0.3zm-3-2h2.6l9-9-2.6-2.6-9 9v2.6z"/>
  </g>
 </g>
</svg>

<?xml version="1.0" encoding="UTF-8" standalone="no"?>
<svg width="18px" height="20px" viewBox="0 0 18 20" version="1.1" xmlns="http://www.w3.org/2000/svg" xmlns:xlink="http://www.w3.org/1999/xlink" xmlns:sketch="http://www.bohemiancoding.com/sketch/ns">
    <!-- Generator: Sketch 3.3.2 (12043) - http://www.bohemiancoding.com/sketch -->
    <title>Untitled 5</title>
    <desc>Created with Sketch.</desc>
    <defs></defs>
    <g id="Page-1" stroke="none" stroke-width="1" fill="none" fill-rule="evenodd" sketch:type="MSPage">
        <g id="editar" sketch:type="MSLayerGroup" fill="#444444">
            <path d="M17,20 L1,20 C0.4,20 0,19.6 0,19 C0,18.4 0.4,18 1,18 L17,18 C17.6,18 18,18.4 18,19 C18,19.6 17.6,20 17,20 L17,20 Z" id="Shape" sketch:type="MSShapeGroup"></path>
            <path d="M6,16 L2,16 C1.4,16 1,15.6 1,15 L1,11 C1,10.7 1.1,10.5 1.3,10.3 L11.3,0.3 C11.7,-0.1 12.3,-0.1 12.7,0.3 L16.7,4.3 C17.1,4.7 17.1,5.3 16.7,5.7 L6.7,15.7 C6.5,15.9 6.3,16 6,16 L6,16 Z M3,14 L5.6,14 L14.6,5 L12,2.4 L3,11.4 L3,14 L3,14 Z" id="Shape" sketch:type="MSShapeGroup"></path>
        </g>
    </g>
</svg>
